X:4818
T:Enchanted Lady
R:reel
S:
H:
N:
D:?
Z:Adrian Scahill
M:4/4
L:1/8
K:D
ABAG FAdB|AGFD EA,A,2|ABAG FAdB|ABde fedB:||\
f2df efdf|afef dBBA|f2df efdB|ABAG FDD2|\
f2df efdf|afef dBBA|Addc defg|afeg fdd2||


